X: 2
T: An Old Woman Would
M: 4/4
L: 1/8
R: reel
K: Amaj
AB |\
ce (3eee faec | ecec B2 AB | ce (3eee faec | ecec A2 AB |
ce (3eee faec | ecec B2 ^g2 | a2 gf dfeA | dBec A2 ||
|: AA |\
a2 gf dfeA | d2 ef dfeA | a2 gf dfeA | dBee A2 :|
